src/pos-icons/emoticon-cry.svg

<svg height="24" viewBox="0 0 24 24" width="24" xmlns="http://www.w3.org/2000/svg"><path d="m5.14 17.57c0-1.07 1.18-3.07 2.43-4.76 1.25 1.69 2.43 3.69 2.43 4.76a2.43 2.43 0 0 1 -2.43 2.43c-1.34 0-2.43-1.09-2.43-2.43m16.86-5.57a10 10 0 0 1 -10 10c-.92 0-1.82-.14-2.67-.37 1.57-.68 2.67-2.24 2.67-4.06 0-.45-.11-.97-.31-1.57h.31c1.25 0 2.32.5 2.77 1.23l1.42-1.42c-.9-1.09-2.44-1.81-4.19-1.81-.41 0-.81.04-1.19.12-.43-.76-.96-1.59-1.62-2.49l-.48-.63c.71-.13 1.29-.77 1.29-1.5 0-.8-.7-1.5-1.5-1.5s-1.5.7-1.5 1.5c0 .19.04.37.11.54l-1.15 1.59c-1.56 2.12-2.46 3.87-2.73 5.18-.78-1.43-1.23-3.07-1.23-4.81a10 10 0 0 1 10-10 10 10 0 0 1 10 10m-5-2.5c0-.8-.7-1.5-1.5-1.5s-1.5.7-1.5 1.5.7 1.5 1.5 1.5 1.5-.7 1.5-1.5z"/></svg>

<?xml version="1.0" encoding="UTF-8"?><!DOCTYPE svg PUBLIC "-//W3C//DTD SVG 1.1//EN" "http://www.w3.org/Graphics/SVG/1.1/DTD/svg11.dtd"><svg xmlns="http://www.w3.org/2000/svg" xmlns:xlink="http://www.w3.org/1999/xlink" version="1.1" id="mdi-emoticon-cry" width="24" height="24" viewBox="0 0 24 24"><path d="M5.14,17.57C5.14,16.5 6.32,14.5 7.57,12.81C8.82,14.5 10,16.5 10,17.57A2.43,2.43 0 0,1 7.57,20C6.23,20 5.14,18.91 5.14,17.57M22,12A10,10 0 0,1 12,22C11.08,22 10.18,21.86 9.33,21.63C10.9,20.95 12,19.39 12,17.57C12,17.12 11.89,16.6 11.69,16C11.79,16 11.89,16 12,16C13.25,16 14.32,16.5 14.77,17.23L16.19,15.81C15.29,14.72 13.75,14 12,14C11.59,14 11.19,14.04 10.81,14.12C10.38,13.36 9.85,12.53 9.19,11.63L8.71,11C9.42,10.87 10,10.23 10,9.5C10,8.7 9.3,8 8.5,8C7.7,8 7,8.7 7,9.5C7,9.69 7.04,9.87 7.11,10.04L5.96,11.63C4.4,13.75 3.5,15.5 3.23,16.81C2.45,15.38 2,13.74 2,12A10,10 0 0,1 12,2A10,10 0 0,1 22,12M17,9.5C17,8.7 16.3,8 15.5,8C14.7,8 14,8.7 14,9.5C14,10.3 14.7,11 15.5,11C16.3,11 17,10.3 17,9.5Z" /></svg>
